!!!!SEGMENT: pl-kozmzk--mzk-m-159--047_walczynski-franciszek--praeludia-organi-op-5-allegro-moderato.krn
!!!cenid: 18xx:2790
!!!COM: Walczyński, Franciszek
!!!COM-rismid: pe30021989
!!!CDT: ~1852-1937
!!!CNT: Polish
!!!GTL: Praeludia organi op. 5
!!!OTL: 47. Allegro moderato
!!!PDT: 1894
!!!AGN: Secular; Prelude
!!!SMS-siglum: PL-KOZmzk
!!!SMS-shelfmark: mzk/m/159
!!!SMS-shelfwork: 047 G
!!!SMS-variant:
!!!SMS-altvar:
!!!NIFC-rismid: 1001118862
!!!URL-scan: https://repozytorium.nifc.pl/islandora/object/pl-kozmzk%3A2265/datastream/PDF/view
!!!ONB-nifc: UWAGA: numeracja plików zgodna z numeracją źrodłową
!!!OMD: 47. Allegro moderato.
**kern	**kern	**dynam
*part2	*part1	*part1
*staff2	*staff1	*
*Iorgan	*Iempty	*
*I"[Organo]	*	*
*clefF4	*clefG2	*
*k[b-e-a-d-]	*k[b-e-a-d-]	*
*f:	*f:	*
*M4/4	*M4/4	*
*met(c)	*met(c)	*
=1	=1	=1
*^	*^	*
!	!	!	!	!LO:DY:b=2
1rA	(4FF\	1rg	1r	p
.	8AA-\L	.	.	.
.	8C\J	.	.	.
.	4F\	.	.	.
.	4E-\	.	.	.
=2	=2	=2	=2	=2
1rA	2.D-\	1r	(4B-\	.
.	.	.	8d-\L	.
.	.	.	8f\J	.
.	.	.	4b-\	.
.	4C\)	.	4a-\	.
=3	=3	=3	=3	=3
1rA	(2BBn\	1r	4g\	.
.	.	.	4a-\	.
.	4GG\	.	4g\	.
.	8AAn\L	.	4f\)	.
.	8BBn\J)	.	.	.
=4	=4	=4	=4	=4
!	!	!	!	!LO:DY:b=2
(4C/	1C\	1r	1en\	f
8En/L	.	.	.	.
8G/J	.	.	.	.
4c/	.	.	.	.
4B-X/	.	.	.	.
=5	=5	=5	=5	=5
!	!	!	!	!LO:DY:a
2A-/	2F\	(4f/	[1f\	f
.	.	8a-/L	.	.
.	.	8cc/J	.	.
2c/)	2An\	4ff/	.	.
.	.	4ee-/)	.	.
=6	=6	=6	=6	=6
(1d-/	(1B-\	(4dd-/	1f\_	.
.	.	4b-/	.	.
.	.	4a-X/	.	.
.	.	4g/	.	.
=7	=7	=7	=7	=7
2c/	2c\	2a-/	2f\_	.
4Bn/	2C\	2g/	4f\]	.
([4B-X/	.	.	4en\	.
=8	=8	=8	=8	=8
4B-/]	2.F\)	2.f/)	2.c\	.
4G/	.	.	.	.
4A-/))	.	.	.	.
4rC	4rc	4rc	4rcc	.
!!LO:LB:g=original
=9	=9	=9	=9	=9
1r	1r	1rgg	(4c\	p
.	.	.	8en\L	.
.	.	.	8g\J	.
.	.	.	4cc\	.
.	.	.	4b-\)	.
=10	=10	=10	=10	=10
(4F/	1r	1rgg	(2.a-\	.
8A-/L	.	.	.	.
8c/J	.	.	.	.
4f/	.	.	.	.
4e-/)	.	.	4an\)	.
=11	=11	=11	=11	=11
(2d-/	1r	1rgg	(4b-\	.
.	.	.	4cc\	.
2dn/)	.	.	4b-\	.
.	.	.	4a-X\	.
=12	=12	=12	=12	=12
!	!	!	!	!LO:DY:b=2
[1e-/	(4E-\	1rgg	1g\)	f
.	8G\L	.	.	.
.	8B-\J	.	.	.
.	4e-\	.	.	.
.	4d-X\	.	.	.
=13	=13	=13	=13	=13
1e-/]	1c\)	(4a-/	[1a-\	ff
.	.	8cc/L	.	.
.	.	8ee-/J	.	.
.	.	4aa-/	.	.
.	.	4gg-X/)	.	.
=14	=14	=14	=14	=14
4d-/	4d-\	4ff^/	4a-\]	.
2f/	4c\	4ee-^/	4an\	.
.	2B-\	4dd-^/	4b-\	.
4d-/	.	4b-^/	4g\	.
=15	=15	=15	=15	=15
(2c/	(4c\	(2a-/	2.f\	pp
.	2.C\	.	.	.
4Bn/	.	4g/	.	>
[4B-X/	.	4cc/	4en\	.
=16	=16	=16	=16	=16
4B-/]	1FF\;)	1f/;)	1c\	]
8A-/L	.	.	.	.
8G/J	.	.	.	.
2A-/)	.	.	.	.
*v	*v	*	*	*
*	*v	*v	*
==	==	==
*-	*-	*-
!!!system-decoration: {(s1,s2)}
!!!EED: Andrzej Borzym
!!!EST: 2021-08-08
!!!AIN: 1 empty 1 organ
!!!ENC: Krzysztof Stępień
!!!END: 2021-07-26
